src/images/svg/symbols/markets-stocks-and-indices/american-stocks/stocks-bmw.svg

<svg width="32" height="32" viewBox="0 0 32 32" fill="none" xmlns="http://www.w3.org/2000/svg">
<path d="M0 16C0 7.16344 7.16344 0 16 0C24.8366 0 32 7.16344 32 16C32 24.8366 24.8366 32 16 32C7.16344 32 0 24.8366 0 16Z" fill="#0E0E0E"/>
<path d="M16.3005 5.1746L17.2062 3.18216L17.2666 3.00103V3.18216L17.3873 5.83876C17.6451 5.83876 17.903 5.8828 18.1984 5.93327C18.2489 5.94189 18.3005 5.95071 18.3534 5.95952L18.2326 2.09537C18.0213 2.06518 17.7949 2.05009 17.5684 2.03499C17.342 2.01989 17.1156 2.0048 16.9043 1.97461L16.059 4.1482L15.9986 4.32932L15.9383 4.1482L15.093 1.97461C14.6703 1.97461 14.1873 2.03499 13.7647 2.09537L13.6439 5.95952C13.9458 5.89914 14.3081 5.83876 14.61 5.83876L14.7307 3.18216V3.00103L14.7911 3.18216L15.6968 5.1746H16.3005Z" fill="white"/>
<path d="M23.6665 9.28028C23.9081 9.52179 24.2099 9.88405 24.3911 10.1256L27.6515 8.07273C27.5609 7.98217 27.4552 7.84632 27.3496 7.71046C27.2439 7.57461 27.1382 7.43876 27.0477 7.3482L24.9948 8.67651L24.8741 8.79725L24.9948 8.61612L25.9005 6.8048L25.2364 6.14065L23.425 7.04631L23.2439 7.16707L23.3647 7.04631L24.693 4.99348C24.4515 4.81237 24.2099 4.6312 23.9081 4.38971L21.8552 7.5897C21.976 7.68027 22.1269 7.80102 22.2779 7.92178C22.4288 8.04254 22.5798 8.16329 22.7005 8.25386L24.6326 7.22745L24.7533 7.16707L24.6326 7.28782L23.6665 9.28028Z" fill="white"/>
<path fill-rule="evenodd" clip-rule="evenodd" d="M9.47778 6.56325C9.9608 7.16702 9.65891 7.77079 9.17589 8.31419C8.45138 9.0387 8.08909 9.40099 7.12306 10.4274L4.3457 7.83118C4.49665 7.65004 4.67779 7.43871 4.85892 7.22739C5.04005 7.01607 5.22118 6.80476 5.37212 6.62363C6.39853 5.47646 6.7608 5.17457 7.24382 5.1142C7.48533 5.05382 7.78721 5.11419 7.96834 5.29532C8.39099 5.59721 8.33061 6.08023 8.27023 6.26136V6.32174H8.33061C8.75325 6.20099 9.17589 6.26136 9.47778 6.56325ZM6.94192 6.14061C6.7004 6.38213 6.09664 6.98589 5.55325 7.65003L6.09665 8.13306C6.09665 8.13306 7.18344 6.98588 7.48532 6.68399C7.60608 6.56324 7.72684 6.38211 7.66646 6.20098C7.60608 6.01985 7.42495 5.8991 7.24382 5.95947C7.12306 5.95947 7.0023 6.08023 6.94192 6.14061ZM8.02872 7.2274C7.66646 7.58967 6.64004 8.67646 6.64004 8.67646L7.18344 9.28023C7.18344 9.24932 7.51568 8.90199 7.85622 8.54599C8.18093 8.20654 8.51318 7.85921 8.57212 7.7708C8.5946 7.72584 8.62544 7.68089 8.65842 7.63282C8.71404 7.55176 8.77573 7.46185 8.81363 7.34815C8.87401 7.16701 8.81363 7.04626 8.69287 6.98588C8.57212 6.9255 8.45136 6.9255 8.33061 6.98588C8.27025 6.98588 8.14945 7.10668 8.02872 7.2274Z" fill="white"/>
<path d="M16.0007 16.0007V6.52148C10.7479 6.52148 6.52148 10.8083 6.52148 16.0007H16.0007Z" fill="#0166B1"/>
<path d="M16.0007 25.48C21.2536 25.48 25.48 21.2536 25.48 16.0007L16.0007 16.0007L16.0007 25.48Z" fill="#0166B1"/>
<path d="M16.0007 16.0007H25.48C25.48 10.8083 21.2536 6.52148 16.0007 6.52148V16.0007Z" fill="white"/>
<path d="M6.52148 16.0007C6.52148 21.2536 10.7479 25.48 16.0007 25.48L16.0007 16.0007L6.52148 16.0007Z" fill="white"/>
<path d="M16 31C7.71573 31 1 24.2843 1 16H-1C-1 25.3888 6.61116 33 16 33V31ZM31 16C31 24.2843 24.2843 31 16 31V33C25.3888 33 33 25.3888 33 16H31ZM16 1C24.2843 1 31 7.71573 31 16H33C33 6.61116 25.3888 -1 16 -1V1ZM16 -1C6.61116 -1 -1 6.61116 -1 16H1C1 7.71573 7.71573 1 16 1V-1Z" fill="white"/>
</svg>

<svg width="32" height="32" fill="none" xmlns="http://www.w3.org/2000/svg"><path d="M0 16C0 7.163 7.163 0 16 0s16 7.163 16 16-7.163 16-16 16S0 24.837 0 16Z" fill="#0E0E0E"/><path d="m16.3 5.175.906-1.993.06-.181v.181l.121 2.657c.258 0 .516.044.811.094l.155.027-.12-3.865c-.212-.03-.438-.045-.665-.06-.226-.015-.452-.03-.664-.06l-.845 2.173-.06.181-.06-.18-.846-2.174c-.423 0-.906.06-1.328.12l-.121 3.865c.302-.06.664-.121.966-.121l.12-2.657v-.181l.061.181.906 1.993h.604ZM23.666 9.28c.242.242.544.604.725.846l3.26-2.053a4.223 4.223 0 0 1-.301-.363 4.262 4.262 0 0 0-.302-.362l-2.053 1.329-.12.12.12-.18.905-1.812-.664-.664-1.811.905-.181.121.12-.12 1.329-2.054c-.242-.18-.483-.362-.785-.603l-2.053 3.2c.121.09.272.211.423.332.15.12.302.241.423.332l1.932-1.027.12-.06-.12.12-.966 1.993Z" fill="#fff"/><path fill-rule="evenodd" clip-rule="evenodd" d="M9.478 6.563c.483.604.18 1.208-.302 1.751-.725.725-1.087 1.087-2.053 2.113L4.346 7.831c.15-.181.332-.392.513-.604.181-.21.362-.422.513-.603 1.027-1.148 1.389-1.45 1.872-1.51.241-.06.543 0 .724.181.423.302.363.785.302.966v.06h.06c.423-.12.846-.06 1.148.242Zm-2.536-.422c-.242.241-.845.845-1.389 1.509l.544.483s1.086-1.147 1.388-1.449c.121-.12.242-.302.181-.483-.06-.181-.241-.302-.422-.242-.12 0-.242.121-.302.182Zm1.087 1.086c-.363.363-1.389 1.45-1.389 1.45l.543.603c0-.03.333-.378.673-.734.325-.34.657-.687.716-.775.023-.045.053-.09.086-.138.056-.081.118-.171.156-.285.06-.181 0-.302-.121-.362a.385.385 0 0 0-.362 0c-.06 0-.182.12-.302.241Z" fill="#fff"/><path d="M16 16V6.522c-5.252 0-9.479 4.287-9.479 9.48h9.48Z" fill="#0166B1"/><path d="M16 25.48A9.457 9.457 0 0 0 25.48 16H16v9.48Z" fill="#0166B1"/><path d="M16 16h9.48c0-5.192-4.226-9.479-9.48-9.479v9.48Z" fill="#fff"/><path d="M6.521 16a9.457 9.457 0 0 0 9.48 9.48V16H6.52ZM16 31C7.716 31 1 24.284 1 16h-2c0 9.389 7.611 17 17 17v-2Zm15-15c0 8.284-6.716 15-15 15v2c9.389 0 17-7.611 17-17h-2ZM16 1c8.284 0 15 6.716 15 15h2c0-9.389-7.611-17-17-17v2Zm0-2C6.611-1-1 6.611-1 16h2C1 7.716 7.716 1 16 1v-2Z" fill="#fff"/></svg>
